svg/SJJB-OpenStreetMapIcons/shopping/hifi.svg

<?xml version="1.0" encoding="UTF-8" standalone="no"?>
<!-- Created with Inkscape (http://www.inkscape.org/) -->

<svg
   xmlns:dc="http://purl.org/dc/elements/1.1/"
   xmlns:cc="http://creativecommons.org/ns#"
   xmlns:rdf="http://www.w3.org/1999/02/22-rdf-syntax-ns#"
   xmlns:svg="http://www.w3.org/2000/svg"
   xmlns="http://www.w3.org/2000/svg"
   xmlns:sodipodi="http://sodipodi.sourceforge.net/DTD/sodipodi-0.dtd"
   xmlns:inkscape="http://www.inkscape.org/namespaces/inkscape"
   version="1.0"
   width="580"
   height="580"
   id="svg2"
   sodipodi:version="0.32"
   inkscape:version="0.47 r22583"
   sodipodi:docname="shopping_hifi.svg"
   inkscape:output_extension="org.inkscape.output.svg.inkscape">
  <metadata
     id="metadata2975">
    <rdf:RDF>
      <cc:Work
         rdf:about="">
        <dc:format>image/svg+xml</dc:format>
        <dc:type
           rdf:resource="http://purl.org/dc/dcmitype/StillImage" />
        <cc:license
           rdf:resource="http://web.resource.org/cc/PublicDomain" />
        <dc:language>en</dc:language>
        <dc:title />
      </cc:Work>
    </rdf:RDF>
  </metadata>
  <sodipodi:namedview
     inkscape:window-height="1005"
     inkscape:window-width="1280"
     inkscape:pageshadow="2"
     inkscape:pageopacity="0.0"
     guidetolerance="10.0"
     gridtolerance="10.0"
     objecttolerance="10.0"
     borderopacity="1.0"
     bordercolor="#666666"
     pagecolor="#ffffff"
     id="base"
     inkscape:zoom="0.92167712"
     inkscape:cx="279.80938"
     inkscape:cy="198.28305"
     inkscape:window-x="-4"
     inkscape:window-y="-4"
     inkscape:current-layer="svg2"
     showgrid="false"
     inkscape:window-maximized="1"
     showguides="true"
     inkscape:guide-bbox="true" />
  <defs
     id="defs4">
    <inkscape:perspective
       sodipodi:type="inkscape:persp3d"
       inkscape:vp_x="0 : 290 : 1"
       inkscape:vp_y="6.1230318e-14 : 1000 : 0"
       inkscape:vp_z="580 : 290 : 1"
       inkscape:persp3d-origin="290 : 193.33333 : 1"
       id="perspective2441" />
    <inkscape:perspective
       id="perspective3452"
       inkscape:persp3d-origin="30 : 20 : 1"
       inkscape:vp_z="60 : 30 : 1"
       inkscape:vp_y="0 : 1000 : 0"
       inkscape:vp_x="0 : 30 : 1"
       sodipodi:type="inkscape:persp3d" />
    <symbol
       viewBox="244.5 110 489 219.9"
       id="symbol-university">
      <path
         id="path4460"
         d="M79,43l57,119c0,0,21-96,104-96s124,106,124,106l43-133l82-17L0,17L79,43z" />
      <path
         id="path4462"
         d="M94,176l-21,39"
         stroke-width="20"
         stroke="#000000"
         fill="none" />
      <path
         id="path4464"
         d="M300,19c0,10.5-22.6,19-50.5,19S199,29.5,199,19s22.6-19,50.5-19S300,8.5,300,19z" />
      <path
         id="path4466"
         d="M112,216l-16-38L64,88c0,0-9-8-4-35s16-24,16-24"
         stroke-width="20"
         stroke="#000000"
         ill="none" />
    </symbol>
    <inkscape:perspective
       id="perspective4471"
       inkscape:persp3d-origin="372.04724 : 350.78739 : 1"
       inkscape:vp_z="744.09448 : 526.18109 : 1"
       inkscape:vp_y="0 : 1000 : 0"
       inkscape:vp_x="0 : 526.18109 : 1"
       sodipodi:type="inkscape:persp3d" />
    <inkscape:perspective
       id="perspective4668"
       inkscape:persp3d-origin="6 : 4 : 1"
       inkscape:vp_z="12 : 6 : 1"
       inkscape:vp_y="0 : 1000 : 0"
       inkscape:vp_x="0 : 6 : 1"
       sodipodi:type="inkscape:persp3d" />
    <inkscape:perspective
       id="perspective3826"
       inkscape:persp3d-origin="0.5 : 0.33333333 : 1"
       inkscape:vp_z="1 : 0.5 : 1"
       inkscape:vp_y="0 : 1000 : 0"
       inkscape:vp_x="0 : 0.5 : 1"
       sodipodi:type="inkscape:persp3d" />
    <inkscape:perspective
       id="perspective3855"
       inkscape:persp3d-origin="0.5 : 0.33333333 : 1"
       inkscape:vp_z="1 : 0.5 : 1"
       inkscape:vp_y="0 : 1000 : 0"
       inkscape:vp_x="0 : 0.5 : 1"
       sodipodi:type="inkscape:persp3d" />
    <inkscape:perspective
       id="perspective3909"
       inkscape:persp3d-origin="0.5 : 0.33333333 : 1"
       inkscape:vp_z="1 : 0.5 : 1"
       inkscape:vp_y="0 : 1000 : 0"
       inkscape:vp_x="0 : 0.5 : 1"
       sodipodi:type="inkscape:persp3d" />
    <inkscape:perspective
       id="perspective3950"
       inkscape:persp3d-origin="0.5 : 0.33333333 : 1"
       inkscape:vp_z="1 : 0.5 : 1"
       inkscape:vp_y="0 : 1000 : 0"
       inkscape:vp_x="0 : 0.5 : 1"
       sodipodi:type="inkscape:persp3d" />
    <inkscape:perspective
       id="perspective3972"
       inkscape:persp3d-origin="0.5 : 0.33333333 : 1"
       inkscape:vp_z="1 : 0.5 : 1"
       inkscape:vp_y="0 : 1000 : 0"
       inkscape:vp_x="0 : 0.5 : 1"
       sodipodi:type="inkscape:persp3d" />
    <inkscape:perspective
       id="perspective3994"
       inkscape:persp3d-origin="0.5 : 0.33333333 : 1"
       inkscape:vp_z="1 : 0.5 : 1"
       inkscape:vp_y="0 : 1000 : 0"
       inkscape:vp_x="0 : 0.5 : 1"
       sodipodi:type="inkscape:persp3d" />
    <inkscape:perspective
       id="perspective4016"
       inkscape:persp3d-origin="0.5 : 0.33333333 : 1"
       inkscape:vp_z="1 : 0.5 : 1"
       inkscape:vp_y="0 : 1000 : 0"
       inkscape:vp_x="0 : 0.5 : 1"
       sodipodi:type="inkscape:persp3d" />
    <inkscape:perspective
       id="perspective4837"
       inkscape:persp3d-origin="0.5 : 0.33333333 : 1"
       inkscape:vp_z="1 : 0.5 : 1"
       inkscape:vp_y="0 : 1000 : 0"
       inkscape:vp_x="0 : 0.5 : 1"
       sodipodi:type="inkscape:persp3d" />
    <inkscape:perspective
       id="perspective4971"
       inkscape:persp3d-origin="0.5 : 0.33333333 : 1"
       inkscape:vp_z="1 : 0.5 : 1"
       inkscape:vp_y="0 : 1000 : 0"
       inkscape:vp_x="0 : 0.5 : 1"
       sodipodi:type="inkscape:persp3d" />
  </defs>
  <g
     id="g1327">
    <path
       d="M 66.275,1.768 C 24.94,1.768 1.704,23.139 1.704,66.804 L 1.704,516.927 C 1.704,557.771 22.599,579.156 63.896,579.156 L 515.92,579.156 C 557.227,579.156 578.149,558.841 578.149,516.927 L 578.149,66.804 C 578.149,24.203 557.227,1.768 514.628,1.768 C 514.624,1.768 66.133,1.625 66.275,1.768 z "
       style="fill:#111;stroke:#eee;stroke-width:3.40799999"
       id="path1329" />
  </g>
  <g
     id="layer3"
     inkscape:label="Layout"
     style="display:none;stroke:#757575;stroke-opacity:1"
     transform="matrix(48.14969,0,0,48.14969,-536.27327,-33.306752)">
    <rect
       style="fill:none;stroke:#757575;stroke-width:0.10000000000000001;stroke-miterlimit:4;stroke-dasharray:none;stroke-opacity:1;display:inline"
       id="rect4134"
       width="10"
       height="10"
       x="1"
       y="1" />
    <rect
       style="fill:none;stroke:#757575;stroke-width:0.10000000000000001;stroke-miterlimit:4;stroke-dasharray:none;stroke-opacity:1;display:inline"
       id="rect4136"
       width="8"
       height="8"
       x="2"
       y="2" />
  </g>
  <path
     style="fill:#ffffff;fill-opacity:1;fill-rule:evenodd;stroke:#ffffff;stroke-width:18.03055191;stroke-linecap:round;stroke-linejoin:round;stroke-miterlimit:4;stroke-dasharray:none;stroke-opacity:1"
     d="M 27.242741,-248.97792 L 39.548641,-228.79084 L 152.86371,-184.08575 L 151.87803,-241.06807 L 40.287901,-263.53323 L 27.242741,-248.97792 z"
     id="path3289"
     sodipodi:nodetypes="cccccc" />
  <g
     id="g3338"
     transform="matrix(1.3973279,-0.2437849,0.2437849,1.3973279,-185.07402,-56.183307)" />
  <g
     id="g4872"
     transform="matrix(2.3378763,0,0,2.3378763,-390.83818,-608.90721)">
    <path
       style="fill:#ffffff;fill-opacity:1;stroke:none"
       d="M 102.5,468.78884 C 95.144756,468.78884 89.21875,474.71485 89.21875,482.07009 L 89.21875,528.125 C 89.21875,535.48024 95.144756,541.40625 102.5,541.40625 L 481.21875,541.40625 C 488.57399,541.40625 494.5,535.48024 494.5,528.125 L 494.5,482.07009 C 494.5,474.71485 488.57399,468.78884 481.21875,468.78884 L 102.5,468.78884 z M 111.25,490.96875 L 166.4375,490.96875 C 171.6961,490.96875 175.90625,495.21015 175.90625,500.46875 L 175.90625,511.8125 C 175.90625,517.0711 171.6961,521.3125 166.4375,521.3125 L 111.25,521.3125 C 105.9914,521.3125 101.75,517.0711 101.75,511.8125 L 101.75,500.46875 C 101.75,495.21015 105.9914,490.96875 111.25,490.96875 z M 211.25,490.96875 L 266.4375,490.96875 C 271.6961,490.96875 275.90625,495.21015 275.90625,500.46875 L 275.90625,511.8125 C 275.90625,517.0711 271.6961,521.3125 266.4375,521.3125 L 211.25,521.3125 C 205.9914,521.3125 201.75,517.0711 201.75,511.8125 L 201.75,500.46875 C 201.75,495.21015 205.9914,490.96875 211.25,490.96875 z M 311.25,490.96875 L 366.4375,490.96875 C 371.6961,490.96875 375.90625,495.21015 375.90625,500.46875 L 375.90625,511.8125 C 375.90625,517.0711 371.6961,521.3125 366.4375,521.3125 L 311.25,521.3125 C 305.9914,521.3125 301.75,517.0711 301.75,511.8125 L 301.75,500.46875 C 301.75,495.21015 305.9914,490.96875 311.25,490.96875 z M 411.25,490.96875 L 466.4375,490.96875 C 471.6961,490.96875 475.90625,495.21015 475.90625,500.46875 L 475.90625,511.8125 C 475.90625,517.0711 471.6961,521.3125 466.4375,521.3125 L 411.25,521.3125 C 405.9914,521.3125 401.75,517.0711 401.75,511.8125 L 401.75,500.46875 C 401.75,495.21015 405.9914,490.96875 411.25,490.96875 z"
       transform="matrix(0.51934657,0,0,0.51934657,141.36813,159.95148)"
       id="rect4866"
       sodipodi:nodetypes="ccccccccccccccccccccccccccccccccccccccccccccc" />
    <rect
       ry="6.509872"
       y="436.78281"
       x="200.55109"
       height="13.019744"
       width="36.889275"
       id="rect4868"
       style="fill:#ffffff;fill-opacity:1;stroke:none" />
    <rect
       style="fill:#ffffff;fill-opacity:1;stroke:none"
       id="rect4870"
       width="36.889275"
       height="13.019744"
       x="348.55109"
       y="436.78281"
       ry="6.509872" />
  </g>
  <g
     id="g4877"
     transform="matrix(2.3378763,0,0,2.3378763,-390.83818,-760.5313)">
    <path
       style="fill:#ffffff;fill-opacity:1;stroke:none"
       d="M 102.5,319.21459 C 95.144756,319.21459 89.21875,325.1406 89.21875,332.49584 L 89.21875,404.875 C 89.21875,412.23024 95.144756,418.15625 102.5,418.15625 L 481.21875,418.15625 C 488.57399,418.15625 494.5,412.23024 494.5,404.875 L 494.5,332.49584 C 494.5,325.1406 488.57399,319.21459 481.21875,319.21459 L 102.5,319.21459 z M 434.1875,334.5 C 454.95573,334.5 471.78125,351.32552 471.78125,372.09375 471.78125,392.86198 454.95573,409.6875 434.1875,409.6875 413.41927,409.6875 396.5625,392.86198 396.5625,372.09375 396.5625,351.32552 413.41927,334.5 434.1875,334.5 z M 115.96875,338.5 171.15625,338.5 C 176.41485,338.5 180.65625,342.7414 180.65625,348 L 180.65625,359.34375 C 180.65625,364.60235 176.41485,368.84375 171.15625,368.84375 L 115.96875,368.84375 C 110.71015,368.84375 106.5,364.60235 106.5,359.34375 L 106.5,348 C 106.5,342.7414 110.71015,338.5 115.96875,338.5 z"
       transform="matrix(0.51934657,0,0,0.51934657,141.36813,223.95148)"
       id="rect4879"
       sodipodi:nodetypes="ccccccccccssscccccccccc" />
    <rect
       style="fill:#ffffff;fill-opacity:1;stroke:none"
       id="rect4881"
       width="36.889275"
       height="13.019744"
       x="200.55109"
       y="436.78281"
       ry="6.509872" />
    <rect
       ry="6.509872"
       y="436.78281"
       x="348.55109"
       height="13.019744"
       width="36.889275"
       id="rect4883"
       style="fill:#ffffff;fill-opacity:1;stroke:none" />
  </g>
</svg>

<svg xmlns="http://www.w3.org/2000/svg" viewBox="0 0 580 580" xmlns:xlink="http://www.w3.org/1999/xlink"><path d="m66.28 1.768c-41.34 0-64.57 21.371-64.57 65.04v450.12c0 40.844 20.895 62.23 62.19 62.23h452.02c41.31 0 62.23-20.315 62.23-62.23v-450.12c0-42.601-20.922-65.04-63.52-65.04-.004 0-448.5-.143-448.35 0z" fill="#111" stroke="#eee" stroke-width="3.408"/><g transform="matrix(2.33788 0 0 2.33788-390.84-608.91)"><path d="m102.5 468.79c-7.355 0-13.281 5.926-13.281 13.281v46.05c0 7.355 5.926 13.281 13.281 13.281h378.72c7.355 0 13.281-5.926 13.281-13.281v-46.05c0-7.355-5.926-13.281-13.281-13.281h-378.72m8.75 22.18h55.19c5.259 0 9.469 4.241 9.469 9.5v11.344c0 5.259-4.21 9.5-9.469 9.5h-55.19c-5.259 0-9.5-4.241-9.5-9.5v-11.344c0-5.259 4.241-9.5 9.5-9.5m100 0h55.19c5.259 0 9.469 4.241 9.469 9.5v11.344c0 5.259-4.21 9.5-9.469 9.5h-55.19c-5.259 0-9.5-4.241-9.5-9.5v-11.344c0-5.259 4.241-9.5 9.5-9.5m100 0h55.19c5.259 0 9.469 4.241 9.469 9.5v11.344c0 5.259-4.21 9.5-9.469 9.5h-55.19c-5.259 0-9.5-4.241-9.5-9.5v-11.344c0-5.259 4.241-9.5 9.5-9.5m100 0h55.19c5.259 0 9.469 4.241 9.469 9.5v11.344c0 5.259-4.21 9.5-9.469 9.5h-55.19c-5.259 0-9.5-4.241-9.5-9.5v-11.344c0-5.259 4.241-9.5 9.5-9.5" transform="matrix(.51935 0 0 .51935 141.37 159.95)" fill="#fff"/><rect y="436.78" x="200.55" height="13.02" width="36.889" fill="#fff" rx="6.51" id="0"/><rect width="36.889" height="13.02" x="348.55" y="436.78" fill="#fff" rx="6.51" id="1"/></g><g transform="matrix(2.33788 0 0 2.33788-390.84-760.53)"><path d="m102.5 319.21c-7.355 0-13.281 5.926-13.281 13.281v72.38c0 7.355 5.926 13.281 13.281 13.281h378.72c7.355 0 13.281-5.926 13.281-13.281v-72.38c0-7.355-5.926-13.281-13.281-13.281h-378.72m331.69 15.285c20.768 0 37.594 16.826 37.594 37.594 0 20.768-16.826 37.594-37.594 37.594-20.768 0-37.625-16.826-37.625-37.594 0-20.768 16.857-37.594 37.625-37.594m-318.22 4h55.19c5.259 0 9.5 4.241 9.5 9.5v11.344c0 5.259-4.241 9.5-9.5 9.5h-55.19c-5.259 0-9.469-4.241-9.469-9.5v-11.344c0-5.259 4.21-9.5 9.469-9.5" transform="matrix(.51935 0 0 .51935 141.37 223.95)" fill="#fff"/><use xlink:href="#0"/><use xlink:href="#1"/></g></svg>
